**harm	**harte	**silbe	**silbe	**rhyme	**timestamp	**phrase	**leadinstrument	**kern
*M4/4	*M4/4	*	*	*	*	*	*	*
*	*	*	*	*	*	*	*	*
*	*	*	*	*	*	*	*	*
*A:	*A:	*	*	*	*	*	*	*A:
*	*	*	*	*	*	*	*	*
*	*	*	*	*	*	*	*	*
1r;	N	.	.	.	0	.	r	1r;
=1	=1	=1	=1	=1	=1	=1	=1	=1
*>Letter>A	*>Letter>A	*>Letter>A	*>Letter>A	*>Letter>A	*>Letter>A	*>Letter>A	*>Letter>A	*>Letter>A
*>Label>Intro	*>Label>Intro	*>Label>Intro	*>Label>Intro	*>Label>Intro	*>Label>Intro	*>Label>Intro	*>Label>Intro	*>Label>Intro
1I	A:1	.	.	.	0.441	newline	bass	1A 1cc# 1ee
=2	=2	=2	=2	=2	=2	=2	=2	=2
1I	A:1	.	.	.	2.421	.	bass	1A 1cc# 1ee
=3	=3	=3	=3	=3	=3	=3	=3	=3
1I	A:maj	.	.	.	4.4	.	bass	1A 1cc# 1ee
=4	=4	=4	=4	=4	=4	=4	=4	=4
1IVc	D:maj/5	.	.	.	6.38	.	bass	1d 1f# 1A
=5	=5	=5	=5	=5	=5	=5	=5	=5
1I	A:maj	.	.	.	8.359	newline	trombone	1A 1cc# 1ee
=6	=6	=6	=6	=6	=6	=6	=6	=6
1IVc	D:maj/5	.	.	.	10.306	.	trombone	1d 1f# 1A
=7	=7	=7	=7	=7	=7	=7	=7	=7
1IV	D:maj	.	.	.	12.252	.	trombone	1D 1f# 1a
=8	=8	=8	=8	=8	=8	=8	=8	=8
1V	E:sus4(b7,9)	.	.	.	14.198	.	trombone	1E 1g# 1b
.	.	.	.	.	.	.	.	.
.	.	Res-	.	.	.	.	.	.
.	.	-cue	.	.	.	.	.	.
=9	=9	=9	=9	=9	=9	=9	=9	=9
*>Letter>B	*>Letter>B	*>Letter>B	*>Letter>B	*>Letter>B	*>Letter>B	*>Letter>B	*>Letter>B	*>Letter>B
*>Label>Verse	*>Label>Verse	*>Label>Verse	*>Label>Verse	*>Label>Verse	*>Label>Verse	*>Label>Verse	*>Label>Verse	*>Label>Verse
1I	A:maj	me	.	.	16.145	newline	voice	1A 1cc# 1ee
.	.	_	.	.	.	.	.	.
.	.	.	.	.	.	.	.	.
.	.	.	.	.	.	.	.	.
.	.	Oh	.	.	.	.	.	.
.	.	take	.	.	.	.	.	.
.	.	me	.	.	.	.	.	.
=10	=10	=10	=10	=10	=10	=10	=10	=10
1IV	D:maj	in	.	.	18.101	.	voice	1D 1f# 1a
.	.	your	.	.	.	.	.	.
.	.	arms,	.	A	.	.	.	.
.	.	Res-	.	.	.	.	.	.
.	.	-cue	.	.	.	.	.	.
.	.	_	.	.	.	.	.	.
=11	=11	=11	=11	=11	=11	=11	=11	=11
1-VII	G:maj	me	.	.	20.057	.	voice	1G 1b 1dd
.	.	_	.	.	.	.	.	.
.	.	_	.	.	.	.	.	.
.	.	.	.	.	.	.	.	.
.	.	.	.	.	.	.	.	.
.	.	I	.	.	.	.	.	.
.	.	want	.	.	.	.	.	.
.	.	your	.	.	.	.	.	.
=12	=12	=12	=12	=12	=12	=12	=12	=12
1v7	E:min7	ten-	.	.	22.013	.	voice	1E 1g 1b 1dd
.	.	-der	.	.	.	.	.	.
.	.	_	.	.	.	.	.	.
.	.	_	.	.	.	.	.	.
.	.	charm,	.	A	.	.	.	.
.	.	.	.	.	.	.	.	.
.	.	'Cause	.	.	.	.	.	.
.	.	I'm	.	.	.	.	.	.
.	.	_	.	.	.	.	.	.
=13	=13	=13	=13	=13	=13	=13	=13	=13
1I	A:maj	lone	.	.	23.969	newline	voice	1A 1cc# 1ee
.	.	_	.	.	.	.	.	.
.	.	ly	.	.	.	.	.	.
.	.	_	.	.	.	.	.	.
.	.	.	.	.	.	.	.	.
.	.	and	.	.	.	.	.	.
.	.	I'm	.	.	.	.	.	.
.	.	blue	.	B	.	.	.	.
=14	=14	=14	=14	=14	=14	=14	=14	=14
1IV	D:maj	_	.	.	25.905	.	voice	1D 1f# 1a
.	.	_	.	.	.	.	.	.
.	.	.	.	.	.	.	.	.
.	.	.	.	.	.	.	.	.
.	.	I	.	.	.	.	.	.
.	.	need	.	.	.	.	.	.
.	.	you	.	B	.	.	.	.
=15	=15	=15	=15	=15	=15	=15	=15	=15
1-VII	G:maj	_	.	.	27.84	.	voice	1G 1b 1dd
.	.	.	.	.	.	.	.	.
.	.	and	.	.	.	.	.	.
.	.	your	.	.	.	.	.	.
.	.	love	.	.	.	.	.	.
.	.	_	.	.	.	.	.	.
.	.	_	.	.	.	.	.	.
.	.	too	.	B	.	.	.	.
=16	=16	=16	=16	=16	=16	=16	=16	=16
1v7	E:min7	.	.	.	29.776	.	voice	1E 1g 1b 1dd
.	.	Come	.	.	.	.	.	.
.	.	on	.	.	.	.	.	.
.	.	and	.	.	.	.	.	.
.	.	res-	.	.	.	.	.	.
.	.	-cue	.	.	.	.	.	.
.	.	me	.	.	.	.	.	.
=17	=17	=17	=17	=17	=17	=17	=17	=17
*>Letter>C	*>Letter>C	*>Letter>C	*>Letter>C	*>Letter>C	*>Letter>C	*>Letter>C	*>Letter>C	*>Letter>C
*>Label>Chorus	*>Label>Chorus	*>Label>Chorus	*>Label>Chorus	*>Label>Chorus	*>Label>Chorus	*>Label>Chorus	*>Label>Chorus	*>Label>Chorus
1I	A:maj	.	.	.	31.711	newline	voice	1A 1cc# 1ee
.	.	Come	Come	.	.	.	.	.
.	.	on	on	.	.	.	.	.
.	.	ba-	ba-	.	.	.	.	.
.	.	-by	-by	.	.	.	.	.
.	.	.	.	.	.	.	.	.
.	.	and	and	.	.	.	.	.
=18	=18	=18	=18	=18	=18	=18	=18	=18
1IV	D:maj	res-	res-	.	33.667	.	voice	1D 1f# 1a
.	.	-cue	-cue	.	.	.	.	.
.	.	me	me	.	.	.	.	.
.	.	_	_	.	.	.	.	.
.	.	_	_	.	.	.	.	.
.	.	.	.	.	.	.	.	.
.	.	.	.	.	.	.	.	.
=19	=19	=19	=19	=19	=19	=19	=19	=19
1I	A:maj	.	.	.	35.623	.	voice	1A 1cc# 1ee
.	.	Come	Come	.	.	.	.	.
.	.	on	on	.	.	.	.	.
.	.	ba-	ba-	.	.	.	.	.
.	.	-by	-by	.	.	.	.	.
.	.	.	.	.	.	.	.	.
.	.	and	and	.	.	.	.	.
=20	=20	=20	=20	=20	=20	=20	=20	=20
1IV	D:maj	res-	res-	.	37.578	.	voice	1D 1f# 1a
.	.	-cue	-cue	.	.	.	.	.
.	.	me	me	.	.	.	.	.
.	.	_	_	.	.	.	.	.
.	.	_	_	.	.	.	.	.
.	.	.	.	.	.	.	.	.
.	.	.	.	.	.	.	.	.
=21	=21	=21	=21	=21	=21	=21	=21	=21
1I	A:maj	.	.	.	39.534	newline	voice	1A 1cc# 1ee
.	.	'Cause	'Cause	.	.	.	.	.
.	.	I	I	.	.	.	.	.
.	.	need	need	.	.	.	.	.
.	.	_	_	.	.	.	.	.
.	.	you	you	.	.	.	.	.
.	.	.	.	.	.	.	.	.
=22	=22	=22	=22	=22	=22	=22	=22	=22
1IV	D:maj	by	by	.	41.479	.	voice	1D 1f# 1a
.	.	my	my	.	.	.	.	.
.	.	side	side	.	.	.	.	.
.	.	_	_	.	.	.	.	.
.	.	_	_	.	.	.	.	.
.	.	.	.	.	.	.	.	.
.	.	.	.	.	.	.	.	.
=23	=23	=23	=23	=23	=23	=23	=23	=23
1IV	D:maj	Can't	Can't	.	43.424	.	voice	1D 1f# 1a
.	.	you	you	.	.	.	.	.
.	.	see	see	C	.	.	.	.
.	.	that	that	.	.	.	.	.
.	.	I'm	I'm	.	.	.	.	.
.	.	_	_	.	.	.	.	.
=24	=24	=24	=24	=24	=24	=24	=24	=24
1V	E:sus4(b7,9)	lone-	lone-	.	45.37	.	voice	1E 1g# 1b
.	.	-ly	-ly	C	.	.	.	.
.	.	_	.	.	.	.	.	.
.	.	Res-	.	.	.	.	.	.
.	.	-cue	.	.	.	.	.	.
.	.	me	.	C	.	.	.	.
=25	=25	=25	=25	=25	=25	=25	=25	=25
*>Letter>B	*>Letter>B	*>Letter>B	*>Letter>B	*>Letter>B	*>Letter>B	*>Letter>B	*>Letter>B	*>Letter>B
*>Label>Verse	*>Label>Verse	*>Label>Verse	*>Label>Verse	*>Label>Verse	*>Label>Verse	*>Label>Verse	*>Label>Verse	*>Label>Verse
1I	A:maj	_	.	.	47.315	newline	voice	1A 1cc# 1ee
.	.	.	.	.	.	.	.	.
.	.	.	.	.	.	.	.	.
.	.	.	.	.	.	.	.	.
.	.	Come	.	.	.	.	.	.
.	.	on	.	.	.	.	.	.
.	.	and	.	.	.	.	.	.
=26	=26	=26	=26	=26	=26	=26	=26	=26
1IV	D:maj	take	.	.	49.279	.	voice	1D 1f# 1a
.	.	my	.	.	.	.	.	.
.	.	heart,	.	A	.	.	.	.
.	.	Take	.	.	.	.	.	.
.	.	your	.	.	.	.	.	.
.	.	_	.	.	.	.	.	.
=27	=27	=27	=27	=27	=27	=27	=27	=27
1-VII	G:maj	love	.	.	51.243	.	voice	1G 1b 1dd
.	.	_	.	.	.	.	.	.
.	.	_	.	.	.	.	.	.
.	.	.	.	.	.	.	.	.
.	.	.	.	.	.	.	.	.
.	.	and	.	.	.	.	.	.
.	.	con-	.	.	.	.	.	.
.	.	-quer	.	.	.	.	.	.
=28	=28	=28	=28	=28	=28	=28	=28	=28
1v7	E:min7	ev-	.	.	53.207	.	voice	1E 1g 1b 1dd
.	.	-'ry	.	.	.	.	.	.
.	.	_	.	.	.	.	.	.
.	.	_	.	.	.	.	.	.
.	.	part,	.	A	.	.	.	.
.	.	.	.	.	.	.	.	.
.	.	'Cause	.	.	.	.	.	.
.	.	I'm	.	.	.	.	.	.
.	.	_	.	.	.	.	.	.
=29	=29	=29	=29	=29	=29	=29	=29	=29
1I	A:maj	lone	.	.	55.171	newline	voice	1A 1cc# 1ee
.	.	_	.	.	.	.	.	.
.	.	ly	.	.	.	.	.	.
.	.	_	.	.	.	.	.	.
.	.	.	.	.	.	.	.	.
.	.	and	.	.	.	.	.	.
.	.	I'm	.	.	.	.	.	.
.	.	blue	.	B	.	.	.	.
=30	=30	=30	=30	=30	=30	=30	=30	=30
1IV	D:maj	_	.	.	57.114	.	voice	1D 1f# 1a
.	.	_	.	.	.	.	.	.
.	.	.	.	.	.	.	.	.
.	.	.	.	.	.	.	.	.
.	.	I	.	.	.	.	.	.
.	.	need	.	.	.	.	.	.
.	.	you	.	B	.	.	.	.
=31	=31	=31	=31	=31	=31	=31	=31	=31
1-VII	G:maj	_	.	.	59.058	.	voice	1G 1b 1dd
.	.	.	.	.	.	.	.	.
.	.	and	.	.	.	.	.	.
.	.	your	.	.	.	.	.	.
.	.	love	.	.	.	.	.	.
.	.	_	.	.	.	.	.	.
.	.	too	.	B	.	.	.	.
=32	=32	=32	=32	=32	=32	=32	=32	=32
1v7	E:min7	.	.	.	61.001	.	voice	1E 1g 1b 1dd
.	.	Come	Come	.	.	.	.	.
.	.	on	on	.	.	.	.	.
.	.	and	and	.	.	.	.	.
.	.	res-	res-	.	.	.	.	.
.	.	-cue	-cue	.	.	.	.	.
.	.	me	me	.	.	.	.	.
=33	=33	=33	=33	=33	=33	=33	=33	=33
*>Letter>C	*>Letter>C	*>Letter>C	*>Letter>C	*>Letter>C	*>Letter>C	*>Letter>C	*>Letter>C	*>Letter>C
*>Label>Chorus	*>Label>Chorus	*>Label>Chorus	*>Label>Chorus	*>Label>Chorus	*>Label>Chorus	*>Label>Chorus	*>Label>Chorus	*>Label>Chorus
1I	A:maj	_	_	.	62.944	newline	voice	1A 1cc# 1ee
.	.	Come	Come	.	.	.	.	.
.	.	on	on	.	.	.	.	.
.	.	ba-	ba-	.	.	.	.	.
.	.	-by	-by	.	.	.	.	.
.	.	.	.	.	.	.	.	.
.	.	and	and	.	.	.	.	.
=34	=34	=34	=34	=34	=34	=34	=34	=34
1IV	D:maj	res-	res-	.	64.905	.	voice	1D 1f# 1a
.	.	-cue	-cue	.	.	.	.	.
.	.	me	me	.	.	.	.	.
.	.	.	.	.	.	.	.	.
.	.	.	.	.	.	.	.	.
=35	=35	=35	=35	=35	=35	=35	=35	=35
1I	A:maj	.	.	.	66.865	.	voice	1A 1cc# 1ee
.	.	Come	Come	.	.	.	.	.
.	.	on	on	.	.	.	.	.
.	.	ba-	ba-	.	.	.	.	.
.	.	-by	-by	.	.	.	.	.
.	.	.	.	.	.	.	.	.
.	.	and	and	.	.	.	.	.
=36	=36	=36	=36	=36	=36	=36	=36	=36
1IV	D:maj	res-	res-	.	68.825	.	voice	1D 1f# 1a
.	.	-cue	-cue	.	.	.	.	.
.	.	me	me	.	.	.	.	.
.	.	.	.	.	.	.	.	.
.	.	.	.	.	.	.	.	.
=37	=37	=37	=37	=37	=37	=37	=37	=37
1I	A:maj	.	.	.	70.786	newline	voice	1A 1cc# 1ee
.	.	'Cause	'Cause	.	.	.	.	.
.	.	I	I	.	.	.	.	.
.	.	need	need	.	.	.	.	.
.	.	_	_	.	.	.	.	.
.	.	.	you	.	.	.	.	.
.	.	you	.	.	.	.	.	.
=38	=38	=38	=38	=38	=38	=38	=38	=38
1IV	D:maj	by	by	.	72.743	.	voice	1D 1f# 1a
.	.	my	my	.	.	.	.	.
.	.	side	side	.	.	.	.	.
.	.	_	_	.	.	.	.	.
.	.	_	_	.	.	.	.	.
.	.	.	.	.	.	.	.	.
.	.	.	.	.	.	.	.	.
=39	=39	=39	=39	=39	=39	=39	=39	=39
1IV	D:maj	Can't	Can't	.	74.7	.	voice	1D 1f# 1a
.	.	you	you	.	.	.	.	.
.	.	see	see	C	.	.	.	.
.	.	that	that	.	.	.	.	.
.	.	I'm	I'm	.	.	.	.	.
.	.	_	_	.	.	.	.	.
=40	=40	=40	=40	=40	=40	=40	=40	=40
1V	E:sus4(b7,9)	lone-	lone-	.	76.657	.	voice	1E 1g# 1b
.	.	-ly	-ly	C	.	.	.	.
.	.	.	.	.	.	.	.	.
=41	=41	=41	=41	=41	=41	=41	=41	=41
*>Letter>A	*>Letter>A	*>Letter>A	*>Letter>A	*>Letter>A	*>Letter>A	*>Letter>A	*>Letter>A	*>Letter>A
*>Label>Interlude	*>Label>Interlude	*>Label>Interlude	*>Label>Interlude	*>Label>Interlude	*>Label>Interlude	*>Label>Interlude	*>Label>Interlude	*>Label>Interlude
1I	A:1	.	.	.	78.615	newline	bass	1A 1cc# 1ee
=42	=42	=42	=42	=42	=42	=42	=42	=42
1I	A:1	.	.	.	80.55	.	bass	1A 1cc# 1ee
=43	=43	=43	=43	=43	=43	=43	=43	=43
1I	A:maj	.	.	.	82.485	.	bass	1A 1cc# 1ee
=44	=44	=44	=44	=44	=44	=44	=44	=44
1IVc	D:maj/5	.	.	.	84.421	.	bass	1d 1f# 1A
=45	=45	=45	=45	=45	=45	=45	=45	=45
1I	A:maj	.	.	.	86.356	newline	trombone	1A 1cc# 1ee
=46	=46	=46	=46	=46	=46	=46	=46	=46
1IVc	D:maj/5	.	.	.	88.282	.	trombone	1d 1f# 1A
=47	=47	=47	=47	=47	=47	=47	=47	=47
1IV	D:maj	.	.	.	90.207	.	trombone	1D 1f# 1a
=48	=48	=48	=48	=48	=48	=48	=48	=48
1V	E:sus4(b7,9)	.	.	.	92.133	.	trombone	1E 1g# 1b
.	.	.	.	.	.	.	.	.
.	.	Res-	.	.	.	.	.	.
.	.	-cue	.	.	.	.	.	.
=49	=49	=49	=49	=49	=49	=49	=49	=49
*>Letter>B	*>Letter>B	*>Letter>B	*>Letter>B	*>Letter>B	*>Letter>B	*>Letter>B	*>Letter>B	*>Letter>B
*>Label>Verse	*>Label>Verse	*>Label>Verse	*>Label>Verse	*>Label>Verse	*>Label>Verse	*>Label>Verse	*>Label>Verse	*>Label>Verse
1I	A:maj	me	.	.	94.058	newline	voice	1A 1cc# 1ee
.	.	_	.	.	.	.	.	.
.	.	.	.	.	.	.	.	.
.	.	.	.	.	.	.	.	.
.	.	Oh	.	.	.	.	.	.
.	.	take	.	.	.	.	.	.
.	.	me	.	.	.	.	.	.
=50	=50	=50	=50	=50	=50	=50	=50	=50
1IV	D:maj	in	.	.	96.015	.	voice	1D 1f# 1a
.	.	your	.	.	.	.	.	.
.	.	arms,	.	A	.	.	.	.
.	.	Res-	.	.	.	.	.	.
.	.	-cue	.	.	.	.	.	.
.	.	_	.	.	.	.	.	.
=51	=51	=51	=51	=51	=51	=51	=51	=51
1-VII	G:maj	me	.	.	97.971	.	voice	1G 1b 1dd
.	.	_	.	.	.	.	.	.
.	.	_	.	.	.	.	.	.
.	.	.	.	.	.	.	.	.
.	.	.	.	.	.	.	.	.
.	.	I	.	.	.	.	.	.
.	.	want	.	.	.	.	.	.
.	.	your	.	.	.	.	.	.
=52	=52	=52	=52	=52	=52	=52	=52	=52
1v7	E:min7	ten-	.	.	99.927	.	voice	1E 1g 1b 1dd
.	.	-der	.	.	.	.	.	.
.	.	_	.	.	.	.	.	.
.	.	_	.	.	.	.	.	.
.	.	charm,	.	A	.	.	.	.
.	.	_	.	.	.	.	.	.
.	.	'Cause	.	.	.	.	.	.
.	.	I'm	.	.	.	.	.	.
.	.	_	.	.	.	.	.	.
=53	=53	=53	=53	=53	=53	=53	=53	=53
1I	A:maj	lone	.	.	101.884	newline	voice	1A 1cc# 1ee
.	.	_	.	.	.	.	.	.
.	.	ly	.	.	.	.	.	.
.	.	_	.	.	.	.	.	.
.	.	.	.	.	.	.	.	.
.	.	and	.	.	.	.	.	.
.	.	I'm	.	.	.	.	.	.
.	.	blue	.	B	.	.	.	.
=54	=54	=54	=54	=54	=54	=54	=54	=54
1IV	D:maj	_	.	.	103.842	.	voice	1D 1f# 1a
.	.	_	.	.	.	.	.	.
.	.	.	.	.	.	.	.	.
.	.	.	.	.	.	.	.	.
.	.	I	.	.	.	.	.	.
.	.	need	.	.	.	.	.	.
.	.	you	.	B	.	.	.	.
=55	=55	=55	=55	=55	=55	=55	=55	=55
1-VII	G:maj	_	.	.	105.801	.	voice	1G 1b 1dd
.	.	.	.	.	.	.	.	.
.	.	and	.	.	.	.	.	.
.	.	your	.	.	.	.	.	.
.	.	love	.	.	.	.	.	.
.	.	_	.	.	.	.	.	.
.	.	_	.	.	.	.	.	.
.	.	too	.	B	.	.	.	.
=56	=56	=56	=56	=56	=56	=56	=56	=56
1v7	E:min7	.	.	.	107.76	.	voice	1E 1g 1b 1dd
.	.	Come	.	.	.	.	.	.
.	.	on	.	.	.	.	.	.
.	.	and	.	.	.	.	.	.
.	.	res-	.	.	.	.	.	.
.	.	-cue	.	.	.	.	.	.
.	.	me	.	.	.	.	.	.
=57	=57	=57	=57	=57	=57	=57	=57	=57
*>Letter>C	*>Letter>C	*>Letter>C	*>Letter>C	*>Letter>C	*>Letter>C	*>Letter>C	*>Letter>C	*>Letter>C
*>Label>Chorus	*>Label>Chorus	*>Label>Chorus	*>Label>Chorus	*>Label>Chorus	*>Label>Chorus	*>Label>Chorus	*>Label>Chorus	*>Label>Chorus
1I	A:maj	_	.	.	109.718	newline	voice	1A 1cc# 1ee
.	.	Come	Come	.	.	.	.	.
.	.	on	on	.	.	.	.	.
.	.	ba-	ba-	.	.	.	.	.
.	.	-by	-by	.	.	.	.	.
.	.	.	.	.	.	.	.	.
=58	=58	=58	=58	=58	=58	=58	=58	=58
1IV	D:maj	.	.	.	111.685	.	voice	1D 1f# 1a
.	.	Take	.	.	.	.	.	.
.	.	me	.	.	.	.	.	.
.	.	ba-	.	.	.	.	.	.
.	.	.	.	.	.	.	.	.
.	.	-by	Take	.	.	.	.	.
.	.	.	me	.	.	.	.	.
.	.	.	ba-	.	.	.	.	.
=59	=59	=59	=59	=59	=59	=59	=59	=59
1I	A:maj	.	_	.	113.651	.	voice	1A 1cc# 1ee
.	.	Hold	-by	.	.	.	.	.
.	.	me	.	.	.	.	.	.
.	.	ba	.	.	.	.	.	.
.	.	.	.	.	.	.	.	.
.	.	by	Hold	.	.	.	.	.
.	.	.	me	.	.	.	.	.
.	.	.	ba-	.	.	.	.	.
=60	=60	=60	=60	=60	=60	=60	=60	=60
1IV	D:maj	.	_	.	115.618	.	voice	1D 1f# 1a
.	.	Love	-by	.	.	.	.	.
.	.	me	.	.	.	.	.	.
.	.	ba-	.	.	.	.	.	.
.	.	.	.	.	.	.	.	.
.	.	-by	Love	.	.	.	.	.
.	.	.	me	.	.	.	.	.
.	.	.	ba-	.	.	.	.	.
=61	=61	=61	=61	=61	=61	=61	=61	=61
1I	A:maj	.	_	.	117.584	newline	voice	1A 1cc# 1ee
.	.	Can't	-by	.	.	.	.	.
.	.	you	.	.	.	.	.	.
.	.	see	.	C	.	.	.	.
.	.	.	.	.	.	.	.	.
.	.	.	Oo	.	.	.	.	.
.	.	that	.	.	.	.	.	.
.	.	I	_	.	.	.	.	.
=62	=62	=62	=62	=62	=62	=62	=62	=62
1IV	D:maj	need	_	C	119.515	.	voice	1D 1f# 1a
.	.	_	_	.	.	.	.	.
.	.	you	.	.	.	.	.	.
.	.	ba-	.	.	.	.	.	.
.	.	.	.	.	.	.	.	.
.	.	-by	.	C	.	.	.	.
.	.	.	.	.	.	.	.	.
=63	=63	=63	=63	=63	=63	=63	=63	=63
1IV	D:maj	Can't	Can't	.	121.445	.	voice	1D 1f# 1a
.	.	you	you	.	.	.	.	.
.	.	see	see	C	.	.	.	.
.	.	that	that	.	.	.	.	.
.	.	I'm	I'm	.	.	.	.	.
.	.	_	_	.	.	.	.	.
=64	=64	=64	=64	=64	=64	=64	=64	=64
1V	E:sus4(b7,9)	lone-	lone-	.	123.376	.	voice	1E 1g# 1b
.	.	-ly	-ly	C	.	.	.	.
.	.	_	.	.	.	.	.	.
.	.	Res-	.	.	.	.	.	.
.	.	-cue	.	.	.	.	.	.
.	.	me	.	C	.	.	.	.
=65	=65	=65	=65	=65	=65	=65	=65	=65
*>Letter>C	*>Letter>C	*>Letter>C	*>Letter>C	*>Letter>C	*>Letter>C	*>Letter>C	*>Letter>C	*>Letter>C
*>Label>Chorus	*>Label>Chorus	*>Label>Chorus	*>Label>Chorus	*>Label>Chorus	*>Label>Chorus	*>Label>Chorus	*>Label>Chorus	*>Label>Chorus
1I	A:maj	_	.	.	125.306	newline	voice	1A 1cc# 1ee
.	.	.	.	.	.	.	.	.
.	.	.	.	.	.	.	.	.
.	.	.	.	.	.	.	.	.
.	.	Come	.	.	.	.	.	.
.	.	on	.	.	.	.	.	.
.	.	and	.	.	.	.	.	.
=66	=66	=66	=66	=66	=66	=66	=66	=66
1IV	D:maj	take	.	.	127.258	.	voice	1D 1f# 1a
.	.	my	.	.	.	.	.	.
.	.	hand	.	D	.	.	.	.
.	.	.	.	.	.	.	.	.
=67	=67	=67	=67	=67	=67	=67	=67	=67
1I	A:maj	.	.	.	129.21	.	voice	1A 1cc# 1ee
.	.	Come	.	.	.	.	.	.
.	.	on	.	.	.	.	.	.
.	.	ba-	.	.	.	.	.	.
.	.	-by	.	.	.	.	.	.
.	.	.	.	.	.	.	.	.
.	.	and	.	.	.	.	.	.
=68	=68	=68	=68	=68	=68	=68	=68	=68
1IV	D:maj	be	.	.	131.162	.	voice	1D 1f# 1a
.	.	my	.	.	.	.	.	.
.	.	man	.	D	.	.	.	.
.	.	_	.	.	.	.	.	.
.	.	_	.	.	.	.	.	.
.	.	.	.	.	.	.	.	.
.	.	.	.	.	.	.	.	.
=69	=69	=69	=69	=69	=69	=69	=69	=69
1I	A:maj	.	.	.	133.113	newline	voice	1A 1cc# 1ee
.	.	'Cause	.	.	.	.	.	.
.	.	I	.	.	.	.	.	.
.	.	love	.	.	.	.	.	.
.	.	_	.	.	.	.	.	.
.	.	you	.	.	.	.	.	.
.	.	.	.	.	.	.	.	.
=70	=70	=70	=70	=70	=70	=70	=70	=70
1IV	D:maj	.	.	.	135.082	.	voice	1D 1f# 1a
.	.	'Cause	.	.	.	.	.	.
.	.	I	.	.	.	.	.	.
.	.	want	.	.	.	.	.	.
.	.	you	.	.	.	.	.	.
.	.	.	.	.	.	.	.	.
=71	=71	=71	=71	=71	=71	=71	=71	=71
1IV	D:maj	Can't	Can't	.	137.051	.	voice	1D 1f# 1a
.	.	you	you	.	.	.	.	.
.	.	see	see	C	.	.	.	.
.	.	that	that	.	.	.	.	.
.	.	I'm	I'm	.	.	.	.	.
.	.	_	_	.	.	.	.	.
=72	=72	=72	=72	=72	=72	=72	=72	=72
1V	E:sus4(b7,9)	lone-	lone-	.	139.02	.	voice	1E 1g# 1b
.	.	-ly	-ly	C	.	.	.	.
.	.	.	.	.	.	.	.	.
.	.	Mm-	.	.	.	.	.	.
.	.	_	.	.	.	.	.	.
.	.	-hm	.	.	.	.	.	.
=73	=73	=73	=73	=73	=73	=73	=73	=73
*>Letter>C2	*>Letter>C2	*>Letter>C2	*>Letter>C2	*>Letter>C2	*>Letter>C2	*>Letter>C2	*>Letter>C2	*>Letter>C2
*>Label>Chorus	*>Label>Chorus	*>Label>Chorus	*>Label>Chorus	*>Label>Chorus	*>Label>Chorus	*>Label>Chorus	*>Label>Chorus	*>Label>Chorus
1I	A:1	_	.	.	140.989	newline	voice	1A 1cc# 1ee
.	.	.	Mm-	.	.	.	.	.
.	.	.	.	.	.	.	.	.
.	.	.	-hm	.	.	.	.	.
.	.	.	.	.	.	.	.	.
.	.	Mm-	.	.	.	.	.	.
.	.	.	_	.	.	.	.	.
.	.	-hm	.	.	.	.	.	.
=74	=74	=74	=74	=74	=74	=74	=74	=74
1IV	D:1	_	.	.	142.952	.	voice	1D 1f# 1a
.	.	.	Mm-	.	.	.	.	.
.	.	.	.	.	.	.	.	.
.	.	.	-hm	.	.	.	.	.
.	.	.	.	.	.	.	.	.
.	.	Take	.	.	.	.	.	.
.	.	me	_	.	.	.	.	.
.	.	ba-	.	.	.	.	.	.
=75	=75	=75	=75	=75	=75	=75	=75	=75
1I	A:1	_	.	.	144.915	.	voice	1A 1cc# 1ee
.	.	-by	Take	.	.	.	.	.
.	.	.	me	.	.	.	.	.
.	.	.	ba-	.	.	.	.	.
.	.	.	.	.	.	.	.	.
.	.	Love	-by	.	.	.	.	.
.	.	me	.	.	.	.	.	.
.	.	ba-	.	.	.	.	.	.
=76	=76	=76	=76	=76	=76	=76	=76	=76
1IV	D:1	_	.	.	146.878	.	voice	1D 1f# 1a
.	.	-by	Love	.	.	.	.	.
.	.	.	me	.	.	.	.	.
.	.	.	ba-	.	.	.	.	.
.	.	.	.	.	.	.	.	.
.	.	Need	-by	.	.	.	.	.
.	.	me	.	.	.	.	.	.
.	.	ba-	.	.	.	.	.	.
=77	=77	=77	=77	=77	=77	=77	=77	=77
1I	A:1	_	.	.	148.84	newline	voice	1A 1cc# 1ee
.	.	-by	Need	.	.	.	.	.
.	.	.	me	.	.	.	.	.
.	.	.	ba-	.	.	.	.	.
.	.	.	.	.	.	.	.	.
.	.	Mm-	-by	.	.	.	.	.
.	.	-hm	.	.	.	.	.	.
=78	=78	=78	=78	=78	=78	=78	=78	=78
1IV	D:1	_	.	.	150.806	.	voice	1D 1f# 1a
.	.	.	Mm-	.	.	.	.	.
.	.	.	.	.	.	.	.	.
.	.	.	-hm	.	.	.	.	.
.	.	.	.	.	.	.	.	.
.	.	Mm-	.	.	.	.	.	.
.	.	.	_	.	.	.	.	.
.	.	-hm	.	.	.	.	.	.
=79	=79	=79	=79	=79	=79	=79	=79	=79
1IV	D:1	Can't	Can't	.	152.771	.	voice	1D 1f# 1a
.	.	you	you	.	.	.	.	.
.	.	see	see	C	.	.	.	.
.	.	that	that	.	.	.	.	.
.	.	I'm	I'm	.	.	.	.	.
.	.	_	_	.	.	.	.	.
=80	=80	=80	=80	=80	=80	=80	=80	=80
1V	E:1	lone-	lone-	.	154.736	.	voice	1E 1g# 1b
.	.	-ly	-ly	C	.	.	.	.
.	.	.	.	.	.	.	.	.
.	.	Res-	.	.	.	.	.	.
.	.	-cue	.	.	.	.	.	.
=81	=81	=81	=81	=81	=81	=81	=81	=81
*>Letter>C2	*>Letter>C2	*>Letter>C2	*>Letter>C2	*>Letter>C2	*>Letter>C2	*>Letter>C2	*>Letter>C2	*>Letter>C2
*>Label>Chorus	*>Label>Chorus	*>Label>Chorus	*>Label>Chorus	*>Label>Chorus	*>Label>Chorus	*>Label>Chorus	*>Label>Chorus	*>Label>Chorus
1I	A:1	me	.	C	156.701	newline	bass	1A 1cc# 1ee
.	.	_	.	.	.	.	.	.
.	.	.	.	.	.	.	.	.
.	.	.	.	.	.	.	.	.
.	.	Res-	.	.	.	.	.	.
.	.	-cue	.	.	.	.	.	.
=82	=82	=82	=82	=82	=82	=82	=82	=82
1IV	D:1	me	.	C	158.602	.	bass	1D 1f# 1a
.	.	_	.	.	.	.	.	.
.	.	.	.	.	.	.	.	.
.	.	.	.	.	.	.	.	.
.	.	Mm-	.	.	.	.	.	.
=83	=83	=83	=83	=83	=83	=83	=83	=83
1I	A:1	_	.	.	160.503	.	bass	1A 1cc# 1ee
.	.	-hm	.	.	.	.	.	.
.	.	_	.	.	.	.	.	.
.	.	.	.	.	.	.	.	.
.	.	Mm-	.	.	.	.	.	.
.	.	-hm	.	.	.	.	.	.
=84	=84	=84	=84	=84	=84	=84	=84	=84
1IV	D:1	_	.	.	162.404	.	bass	1D 1f# 1a
.	.	_	.	.	.	.	.	.
.	.	_	.	.	.	.	.	.
.	.	_	.	.	.	.	.	.
=85	=85	=85	=85	=85	=85	=85	=85	=85
*>Label>>Fadeout	*>Label>>Fadeout	*>Label>>Fadeout	*>Label>>Fadeout	*>Label>>Fadeout	*>Label>>Fadeout	*>Label>>Fadeout	*>Label>>Fadeout	*>Label>>Fadeout
1I	A:1	_	.	.	164.305	newline	bass	1A 1cc# 1ee
.	.	.	.	.	.	.	.	.
.	.	.	.	.	.	.	.	.
=86	=86	=86	=86	=86	=86	=86	=86	=86
1IV	D:1	.	.	.	165.959	.	bass	1D 1f# 1a
=87	=87	=87	=87	=87	=87	=87	=87	=87
1IV	D:1	.	.	.	167.614	.	bass	1D 1f# 1a
=88	=88	=88	=88	=88	=88	=88	=88	=88
1V	E:1	.	.	.	169.268	.	bass	1E 1g# 1b
1r;	N	.	.	.	170.922	.	r	1r;
1r;	N	.	.	.	173.244	.	r	1r;
*-	*-	*-	*-	*-	*-	*-	*-	*-
!!!BillboardChartDate: 1965/10/30
!!!BillboardPeak: 4
!!!BillboardWeeksOnChart: 13
!!!COC: Fontella Bass
!!!ENC: Nathaniel Condit-Schultz
!!!EST: Awating manual error checking and editing.
!!!OTL: Rescue Me
!!!RDF**harte: Chris Harte's syntax, used by MIREX
!!!RDF**harmony: **recip + pitch class of root + harmonic quality
!!!RDF**leadinstrument: original McGill primary instrumentation annotation
!!!RDF**phrase: newline = linebreak in original McGill transcription
!!!RDF**timestamp: McGill audio timestamp in seconds
!!!RDT: 2017/01/12/
!!!SampleActualRank: 14
!!!SampleID#: 0777
!!!SampleTargetRank: 15
!!!MBID: b9686ef3-660d-40b1-a7b5-bb49decf7341
